X:2031
T:O colann/colb ec shee 
C:Traditional
O:Isle of Man
S:Ellen Costain, Colby
Z:Clague collection
B:Kiaull Vannin #31
L:1/4
M:3/4 
Q:140 
K:D 
A A A|A2 d|B2 G|F3|A A A|E2 A|B2 B|A3| 
A F E|D2 D|E2 F|G3|D E F|G2 A|E2 E|D3|| 
